images/global/icons/action/target.svg

<svg id="action-target-Layer_1" xmlns="http://www.w3.org/2000/svg" viewBox="0 0 48 48" enable-background="new 0 0 48 48"><title>icon/Action/target</title><g transform="translate(11 11)"><path id="action-target-a_1_" d="M14.2 2.5c4.4.7 7.9 4.1 8.5 8.5h-1.6c-.7-3.5-3.4-6.3-6.9-6.9V2.5zm-3.2 0c-4.4.7-7.8 4.1-8.5 8.5h1.6c.6-3.5 3.4-6.3 6.9-6.9V2.5zm3.2 20.2c4.4-.7 7.9-4.1 8.5-8.5h-1.6c-.7 3.5-3.4 6.3-6.9 6.9v1.6zm-3.2 0c-4.4-.7-7.9-4.1-8.5-8.5h1.6c.7 3.5 3.4 6.3 6.9 6.9v1.6zM11.8.8c0-.4.4-.8.8-.8s.8.4.8.8v6.3c0 .4-.4.8-.8.8s-.8-.4-.8-.8V.8zm0 18.1c0-.4.4-.8.8-.8s.8.4.8.8v6.3c0 .4-.4.8-.8.8s-.8-.4-.8-.8v-6.3zm7.1-5.5c-.4 0-.8-.4-.8-.8s.4-.8.8-.8h6.3c.4 0 .8.4.8.8s-.4.8-.8.8h-6.3zm-18.1 0c-.4 0-.8-.4-.8-.8s.4-.8.8-.8h6.3c.4 0 .8.4.8.8s-.4.8-.8.8H.8z" fill="#384048"/><defs><filter id="action-target-Adobe_OpacityMaskFilter" filterUnits="userSpaceOnUse" x="-13" y="-13" width="52" height="52"><feColorMatrix values="1 0 0 0 0 0 1 0 0 0 0 0 1 0 0 0 0 0 1 0"/></filter></defs><mask maskUnits="userSpaceOnUse" x="-13" y="-13" width="52" height="52" id="action-target-b"><g filter="url(#action-target-Adobe_OpacityMaskFilter)"><path id="action-target-a" d="M14.2 2.5c4.4.7 7.9 4.1 8.5 8.5h-1.6c-.7-3.5-3.4-6.3-6.9-6.9V2.5zm-3.2 0c-4.4.7-7.8 4.1-8.5 8.5h1.6c.6-3.5 3.4-6.3 6.9-6.9V2.5zm3.2 20.2c4.4-.7 7.9-4.1 8.5-8.5h-1.6c-.7 3.5-3.4 6.3-6.9 6.9v1.6zm-3.2 0c-4.4-.7-7.9-4.1-8.5-8.5h1.6c.7 3.5 3.4 6.3 6.9 6.9v1.6zM11.8.8c0-.4.4-.8.8-.8s.8.4.8.8v6.3c0 .4-.4.8-.8.8s-.8-.4-.8-.8V.8zm0 18.1c0-.4.4-.8.8-.8s.8.4.8.8v6.3c0 .4-.4.8-.8.8s-.8-.4-.8-.8v-6.3zm7.1-5.5c-.4 0-.8-.4-.8-.8s.4-.8.8-.8h6.3c.4 0 .8.4.8.8s-.4.8-.8.8h-6.3zm-18.1 0c-.4 0-.8-.4-.8-.8s.4-.8.8-.8h6.3c.4 0 .8.4.8.8s-.4.8-.8.8H.8z" fill="#fff"/></g></mask><g mask="url(#action-target-b)"><path d="M-13-13h52v52h-52v-52z" fill="#111"/></g></g></svg>

<?xml version="1.0" encoding="utf-8"?>
<!-- Generator: Adobe Illustrator 21.0.2, SVG Export Plug-In . SVG Version: 6.00 Build 0)  -->
<svg version="1.1" id="action-target-Layer_1" xmlns="http://www.w3.org/2000/svg" xmlns:xlink="http://www.w3.org/1999/xlink" x="0px" y="0px"
	 viewBox="0 0 48 48" style="enable-background:new 0 0 48 48;" xml:space="preserve">
<title>icon/Action/target</title>
<g transform="translate(11 11)">
	<g>
		<path id="action-target-a_1_" style="fill:#384048;" d="M14.2,2.5c4.4,0.7,7.9,4.1,8.5,8.5h-1.6c-0.7-3.5-3.4-6.3-6.9-6.9
			C14.2,4.1,14.2,2.5,14.2,2.5z M11,2.5C6.6,3.2,3.2,6.6,2.5,11h1.6C4.7,7.5,7.5,4.7,11,4.1V2.5z M14.2,22.7
			c4.4-0.7,7.9-4.1,8.5-8.5h-1.6c-0.7,3.5-3.4,6.3-6.9,6.9C14.2,21.1,14.2,22.7,14.2,22.7z M11,22.7c-4.4-0.7-7.9-4.1-8.5-8.5h1.6
			c0.7,3.5,3.4,6.3,6.9,6.9V22.7z M11.8,0.8c0-0.4,0.4-0.8,0.8-0.8s0.8,0.4,0.8,0.8v6.3c0,0.4-0.4,0.8-0.8,0.8s-0.8-0.4-0.8-0.8
			C11.8,7.1,11.8,0.8,11.8,0.8z M11.8,18.9c0-0.4,0.4-0.8,0.8-0.8s0.8,0.4,0.8,0.8v6.3c0,0.4-0.4,0.8-0.8,0.8s-0.8-0.4-0.8-0.8V18.9
			L11.8,18.9z M18.9,13.4c-0.4,0-0.8-0.4-0.8-0.8s0.4-0.8,0.8-0.8h6.3c0.4,0,0.8,0.4,0.8,0.8s-0.4,0.8-0.8,0.8H18.9L18.9,13.4z
			 M0.8,13.4C0.4,13.4,0,13,0,12.6s0.4-0.8,0.8-0.8h6.3c0.4,0,0.8,0.4,0.8,0.8s-0.4,0.8-0.8,0.8C7.1,13.4,0.8,13.4,0.8,13.4z"/>
	</g>
	<defs>
		<filter id="action-target-Adobe_OpacityMaskFilter" filterUnits="userSpaceOnUse" x="-13" y="-13" width="52" height="52">
			<feColorMatrix  type="matrix" values="1 0 0 0 0  0 1 0 0 0  0 0 1 0 0  0 0 0 1 0"/>
		</filter>
	</defs>
	<mask maskUnits="userSpaceOnUse" x="-13" y="-13" width="52" height="52" id="action-target-b">
		<g style="filter:url(#action-target-Adobe_OpacityMaskFilter);">
			<path id="action-target-a" style="fill:#FFFFFF;" d="M14.2,2.5c4.4,0.7,7.9,4.1,8.5,8.5h-1.6c-0.7-3.5-3.4-6.3-6.9-6.9
				C14.2,4.1,14.2,2.5,14.2,2.5z M11,2.5C6.6,3.2,3.2,6.6,2.5,11h1.6C4.7,7.5,7.5,4.7,11,4.1V2.5z M14.2,22.7
				c4.4-0.7,7.9-4.1,8.5-8.5h-1.6c-0.7,3.5-3.4,6.3-6.9,6.9C14.2,21.1,14.2,22.7,14.2,22.7z M11,22.7c-4.4-0.7-7.9-4.1-8.5-8.5h1.6
				c0.7,3.5,3.4,6.3,6.9,6.9V22.7z M11.8,0.8c0-0.4,0.4-0.8,0.8-0.8s0.8,0.4,0.8,0.8v6.3c0,0.4-0.4,0.8-0.8,0.8s-0.8-0.4-0.8-0.8
				C11.8,7.1,11.8,0.8,11.8,0.8z M11.8,18.9c0-0.4,0.4-0.8,0.8-0.8s0.8,0.4,0.8,0.8v6.3c0,0.4-0.4,0.8-0.8,0.8s-0.8-0.4-0.8-0.8
				V18.9L11.8,18.9z M18.9,13.4c-0.4,0-0.8-0.4-0.8-0.8s0.4-0.8,0.8-0.8h6.3c0.4,0,0.8,0.4,0.8,0.8s-0.4,0.8-0.8,0.8H18.9L18.9,13.4
				z M0.8,13.4C0.4,13.4,0,13,0,12.6s0.4-0.8,0.8-0.8h6.3c0.4,0,0.8,0.4,0.8,0.8s-0.4,0.8-0.8,0.8C7.1,13.4,0.8,13.4,0.8,13.4z"/>
		</g>
	</mask>
	<g style="mask:url(#action-target-b);">
		<path style="fill:#111111;" d="M-13-13h52v52h-52V-13z"/>
	</g>
</g>
</svg>
